img/back-active.svg

<?xml version="1.0" encoding="UTF-8" standalone="no"?>
<!-- Generator: Adobe Illustrator 9.0, SVG Export Plug-In  -->

<svg
   xmlns:dc="http://purl.org/dc/elements/1.1/"
   xmlns:cc="http://creativecommons.org/ns#"
   xmlns:rdf="http://www.w3.org/1999/02/22-rdf-syntax-ns#"
   xmlns:svg="http://www.w3.org/2000/svg"
   xmlns="http://www.w3.org/2000/svg"
   xmlns:sodipodi="http://sodipodi.sourceforge.net/DTD/sodipodi-0.dtd"
   xmlns:inkscape="http://www.inkscape.org/namespaces/inkscape"
   width="48"
   height="48"
   viewBox="0 0 48 48"
   xml:space="preserve"
   id="svg2"
   sodipodi:version="0.32"
   inkscape:version="0.48.3.1 r9886"
   sodipodi:docname="back-active.svg"
   version="1.0"><metadata
   id="metadata25"><rdf:RDF><cc:Work
       rdf:about=""><dc:format>image/svg+xml</dc:format><dc:type
         rdf:resource="http://purl.org/dc/dcmitype/StillImage" /></cc:Work></rdf:RDF></metadata><defs
   id="defs23">
		
	
			
			
			
			
			
			
		
		
	
			
			
			
			
		</defs><sodipodi:namedview
   inkscape:window-height="712"
   inkscape:window-width="1366"
   inkscape:pageshadow="2"
   inkscape:pageopacity="0.0"
   borderopacity="1.0"
   bordercolor="#666666"
   pagecolor="#ffffff"
   id="base"
   showgrid="true"
   inkscape:grid-bbox="true"
   inkscape:grid-points="true"
   inkscape:zoom="4.1041668"
   inkscape:cx="-26.323624"
   inkscape:cy="26.218385"
   inkscape:window-x="0"
   inkscape:window-y="27"
   inkscape:current-layer="svg2"
   inkscape:window-maximized="1" />
	<path
   style="fill:none;fill-rule:nonzero;stroke:#0f1948;stroke-width:6;stroke-linecap:round;stroke-linejoin:round;stroke-miterlimit:4;stroke-dasharray:none;fill-opacity:1;stroke-opacity:1"
   d="M 40,39 L 12,39 L 8,35 L 8,8 L 40,8 L 40,39 z "
   id="path9"
   sodipodi:nodetypes="cccccc" /><path
   style="fill-rule:nonzero;stroke:#0f1948;stroke-miterlimit:4;stroke-opacity:1;fill:#0f1948;fill-opacity:1"
   d="M 39.8,38.7 L 12,38.7 L 8.2,34.9 L 8.2,8.8 L 39.8,8.8 L 39.8,38.7 z "
   id="path11" />
	<g
   id="crop_x0020_marks"
   style="fill-rule:nonzero;stroke:#000000;stroke-miterlimit:4">
		<path
   style="fill:none;stroke:none"
   d="M 48,48 L 0,48 L 0,0 L 48,0 L 48,48 z "
   id="path20" />
	</g>
<path
   sodipodi:nodetypes="ccccccccccsccccccc"
   id="path13"
   d="M 22.479937,9.1 C 22.479937,8.9000001 22.279937,8.9000001 22.079937,9 L 11.079937,20.1 C 10.679937,20.5 10.879937,20.9 11.079937,21.1 L 22.179937,32.8 C 22.279937,32.9 22.479937,32.8 22.479937,32.7 L 22.079937,25.1 L 27.079937,25.626203 C 28.079937,25.626203 29.079937,26.6 29.079937,29.1 L 29.079937,32.1 C 29.079937,35 24.079937,35.2 24.079937,36.1 C 24.079937,37 26.079937,38.1 26.079937,38.1 L 29.079937,38.1 C 33.079937,38.1 35.079937,33.8 35.079937,30.1 L 35.079937,25.1 C 35.079937,19.1 31.779937,16.1 26.979937,16.1 L 22.079937,16.1 L 22.479937,9.1 z "
   style="fill:#ffffff;fill-rule:nonzero;stroke:none;stroke-miterlimit:4" /></svg>

<?xml version="1.0" encoding="UTF-8" standalone="no"?>
<!-- Generator: Adobe Illustrator 9.0, SVG Export Plug-In  -->
<svg id="svg2" xmlns:rdf="http://www.w3.org/1999/02/22-rdf-syntax-ns#" xmlns="http://www.w3.org/2000/svg" xml:space="preserve" height="48" width="48" version="1.0" xmlns:cc="http://creativecommons.org/ns#" xmlns:dc="http://purl.org/dc/elements/1.1/" viewBox="0 0 48 48"><metadata id="metadata25"><rdf:RDF><cc:Work rdf:about=""><dc:format>image/svg+xml</dc:format><dc:type rdf:resource="http://purl.org/dc/dcmitype/StillImage"/></cc:Work></rdf:RDF></metadata>
	<path id="path9" stroke-linejoin="round" d="m40 39h-28l-4-4v-27h32v31z" stroke="#0f1948" stroke-linecap="round" stroke-width="6" fill="none"/><path id="path11" d="m39.8 38.7h-27.8l-3.8-3.8v-26.1h31.6v29.9z" stroke="#0f1948" fill="#0f1948"/>
	<g id="crop_x0020_marks" stroke="#000">
		<path id="path20" fill="none" d="m48 48h-48v-48h48v48z"/>
	</g>
<path id="path13" d="m22.48 9.1c0-0.2-0.2-0.2-0.4-0.1l-11 11.1c-0.4 0.4-0.2 0.8 0 1l11.1 11.7c0.1 0.1 0.3 0 0.3-0.1l-0.4-7.6 5 0.526c1 0 2 0.974 2 3.474v3c0 2.9-5 3.1-5 4s2 2 2 2h3c4 0 6-4.3 6-8v-5c0-6-3.3-9-8.1-9h-4.9l0.4-7z" fill="#fff"/></svg>
